src/svg/file-pdf.svg

<svg height="1000" width="750.0" xmlns="http://www.w3.org/2000/svg">
    <path d="m355.3 500.2c-9.8-31.3-9.6-91.6-3.9-91.6 16.4 0 14.8 72.1 3.9 91.6z m-3.3 92.2c18.7 34 42.5 60.9 67.3 79.7-46.6 9.2-87.1 29.1-122.8 42.7 21.7-37.8 40.4-83 55.5-122.4z m-183.8 243.7c11.3-30.6 55-66.2 68.1-78.5-42.4 68-68.1 80.1-68.1 78.5z m316.2-523.6h265.6v640.6c0 26-20.9 46.9-46.9 46.9h-656.2c-26 0-46.9-20.9-46.9-46.9v-906.2c0-26 20.9-46.9 46.9-46.9h390.6v265.6c0 25.8 21.1 46.9 46.9 46.9z m-15.6 335.5c-39.1-23.8-65.1-56.6-83.4-105 8.7-36.2 22.6-91 12.1-125.4-9.2-57.4-82.9-51.8-93.4-13.3-9.8 35.7-0.8 86.1 15.8 150.4-22.6 53.9-56 126.2-79.7 167.6-0.2 0-0.2 0.2-0.4 0.2-52.9 27.1-143.7 86.9-106.4 132.8 10.9 13.4 31.2 19.5 42 19.5 35 0 69.7-35.2 119.3-120.7 50.4-16.6 105.7-37.3 154.3-45.3 42.4 23 92 38.1 125 38.1 57.1 0 61-62.5 38.5-84.8-27.1-26.6-106.1-18.9-143.7-14.1z m267.5-442.9c8.8 8.8 13.7 20.7 13.7 33v11.9h-250v-250h11.7c12.5 0 24.4 4.9 33.2 13.7z m-144.7 498.6c0 0-11.1 13.3-83.6-17.6 78.7-5.6 91.6 12.3 83.6 17.6z" />
  </svg>

<svg height="1000" width="750" xmlns="http://www.w3.org/2000/svg"><path d="M355.3 500.2c-9.8 -31.3 -9.6 -91.6 -3.9 -91.6 16.4 0 14.8 72.1 3.9 91.6zm-3.3 92.2c-15.1 39.4 -33.8 84.6 -55.5 122.4 35.7 -13.6 76.2 -33.5 122.8 -42.7C394.5 653.3 370.7 626.4 352 592.4zM168.2 836.1c0 1.6 25.7 -10.5 68.1 -78.5 -13.1 12.3 -56.8 47.9 -68.1 78.5zM484.4 312.5H750v640.6c0 26 -20.9 46.9 -46.9 46.9H46.9C20.9 1000 0 979.1 0 953.1V46.9C0 20.9 20.9 0 46.9 0h390.6v265.6c0 25.8 21.1 46.9 46.9 46.9zM468.8 648C429.7 624.2 403.7 591.4 385.4 543c8.7 -36.2 22.6 -91 12.1 -125.4 -9.2 -57.4 -82.9 -51.8 -93.4 -13.3 -9.8 35.7 -.8 86.1 15.8 150.4 -22.6 53.9 -56 126.2 -79.7 167.6 -.2 0 -.2 .2 -.4 .2C186.9 749.6 96.1 809.4 133.4 855.3c10.9 13.5 31.2 19.5 42 19.5 35 0 69.7 -35.2 119.3 -120.7C345.1 737.5 400.4 716.8 449 708.8c42.4 23 92 38.1 125 38.1 57.1 0 61 -62.5 38.5 -84.8C585.4 635.5 506.4 643.2 468.8 648zM736.3 205.1L544.9 13.7C536.1 4.9 524.2 0 511.7 0H500v250h250v-11.9c0 -12.3 -4.9 -24.2 -13.7 -33zM591.6 703.7c8 -5.3 -4.9 -23.2 -83.6 -17.6 72.5 30.9 83.6 17.6 83.6 17.6z"/></svg>
